X:010
T:Brass Band March
B:NFID.156
010brass
S:CC
L:1/8
M:C
R:march
Q:300
K:G
%A1
G4 G3A|B2 d4 g2|e2eg e2d2|B2.D2.E2.F2|
"5"G4 GFGA|G2 (3FGF (3EFE D2|G4 GFGA|G2 F/G/F E2D2|
"9"A4 A^GAB|A2F2 E/F/E D2|A4 A^GAB|c6 B/c/B|
%A2
"13"A2 D/E/F/G/ A2 D/E/F/G/|A2F2 E/F/E D2|B4 BABc|d6||
g2|"17"e2eg e2d2|[B6G6] (3BcB|A2c2 ABcA|B2G2 E4|
"21"e2 ef e2d2|[B6G6][B2G2]|ABc2 AB^c2|d6||
%B
c2|"25"B2c2^c2d2|[M:3/2] b4a4 a^gab|[M:C] a2B2^c2d2|g4 gfga|
g2B2^c2d2|
[M:3/2] "30"b4a4 a^gab|[M:C] a2B2c2 de|B2D2E2F2|
"33"G2 F/G/F E/F/E D2|B2c2^c2d2|[M:3/2]  b4a4 a^gab|[M:C] A2B2^c2d2|
"37"g4 gfga|g6G2|A2B2c2d2|e2f2g2^g2|
"41"a2ba g2f2|g2ag f2g2|a2ba g2ag|e2ge d2e2|
"45"c2e2 B/c/B A2|G4 GFGA|G2 (3EGE D2E2|G6 (3BcB|
"49"A2aa a2e2|g6 (3efg|a2 (3efg a2ef|g2 c4 g2|
"53"e2ee e2^d2|e2=d2 c/B/c A2|G2gg g2a2|g2eg e2d2|c8|]

%%%

